src/4-icons/camera.svg

<svg width="260" height="260" viewBox="0 0 260 260" fill="none" xmlns="http://www.w3.org/2000/svg">
<path fill-rule="evenodd" clip-rule="evenodd" d="M87 61H240C251.046 61 260 69.9543 260 81V206C260 217.046 251.046 226 240 226H20C8.9543 226 0 217.046 0 206V81C0 69.9543 8.95431 61 20 61H33C33 46.0883 45.0883 34 60 34C74.9117 34 87 46.0883 87 61ZM73 61C73 53.8203 67.1797 48 60 48C52.8203 48 47 53.8203 47 61H73ZM14 197V131H72.0038C70.6965 135.947 70 141.142 70 146.5C70 179.913 97.0868 207 130.5 207C163.913 207 191 179.913 191 146.5C191 141.142 190.304 135.947 188.996 131H246V197C246 205.284 239.284 212 231 212H29C20.7157 212 14 205.284 14 197ZM246 117V90C246 81.7157 239.284 75 231 75H29C20.7157 75 14 81.7157 14 90V117H77.6671C88.0169 98.5037 107.798 86 130.5 86C153.202 86 172.983 98.5037 183.333 117H246ZM130.5 193C104.819 193 84 172.181 84 146.5C84 120.819 104.819 100 130.5 100C156.181 100 177 120.819 177 146.5C177 172.181 156.181 193 130.5 193Z" fill="black"/>
</svg>

<svg width="260" height="260" viewBox="0 0 260 260" fill="none" xmlns="http://www.w3.org/2000/svg"><path fill-rule="evenodd" clip-rule="evenodd" d="M87 61h153c11.046 0 20 8.954 20 20v125c0 11.046-8.954 20-20 20H20c-11.046 0-20-8.954-20-20V81c0-11.046 8.954-20 20-20h13c0-14.912 12.088-27 27-27s27 12.088 27 27Zm-14 0c0-7.18-5.82-13-13-13s-13 5.82-13 13h26ZM14 197v-66h58.004A60.593 60.593 0 0 0 70 146.5c0 33.413 27.087 60.5 60.5 60.5s60.5-27.087 60.5-60.5c0-5.358-.696-10.553-2.004-15.5H246v66c0 8.284-6.716 15-15 15H29c-8.284 0-15-6.716-15-15Zm232-80V90c0-8.284-6.716-15-15-15H29c-8.284 0-15 6.716-15 15v27h63.667c10.35-18.496 30.131-31 52.833-31 22.702 0 42.483 12.504 52.833 31H246Zm-115.5 76c-25.681 0-46.5-20.819-46.5-46.5s20.819-46.5 46.5-46.5 46.5 20.819 46.5 46.5-20.819 46.5-46.5 46.5Z" fill="#000"/></svg>
